assets/images/partners/partner-4.svg

<svg width="219" height="32" viewBox="0 0 219 32" fill="none" xmlns="http://www.w3.org/2000/svg">
<path d="M53.7255 6.6072H48.4068V14.2024H53.7255C56.116 14.2024 57.7295 12.7821 57.7295 10.3739C57.7295 7.96568 56.116 6.6072 53.7255 6.6072ZM57.9088 27.6638L52.8889 17.3516H48.4068V27.6638H44.8211V3.27272H53.9646C58.4467 3.27272 61.3152 6.2367 61.3152 10.4357C61.4348 13.4614 59.4626 16.1784 56.5941 16.9194L62.0324 27.7255H57.9088V27.6638ZM73.2675 15.1904C72.4309 13.2761 70.2197 12.4734 68.3671 13.3379C67.5902 13.7084 66.9328 14.3876 66.5742 15.1904C66.2754 15.9314 66.0961 16.7341 66.1559 17.5369H73.7456C73.7456 16.7341 73.6261 15.9314 73.2675 15.1904ZM66.1559 20.0068C66.1559 22.9708 67.7097 24.885 70.4587 24.885C72.0125 24.9468 73.5066 24.3293 74.5225 23.0943L76.6739 25.1938C75.0604 27.0463 72.7894 28.0343 70.399 27.9108C66.1559 27.9108 62.8093 25.626 62.8093 19.0188C62.8093 13.3996 65.6181 10.1269 69.9209 10.1269C74.4627 10.1269 77.0923 13.5231 77.0923 18.4631V20.0068H66.1559ZM88.686 15.1904C88.4165 14.5096 87.9508 13.9311 87.3521 13.5334C86.7533 13.1356 86.0506 12.938 85.3393 12.9674C83.9051 12.9056 82.5305 13.7701 81.9927 15.1904C81.6939 15.9314 81.5146 16.7341 81.5744 17.5369H89.1641C89.1641 16.7341 88.9848 15.9314 88.686 15.1904ZM81.5744 20.0068C81.5744 22.9708 83.1282 24.885 85.8772 24.885C87.431 25.0085 88.925 24.3293 89.941 23.0943L92.0924 25.1938C90.4788 27.0463 88.1481 28.0343 85.7577 27.9108C81.5146 27.9108 78.168 25.626 78.168 19.0188C78.168 13.3996 80.9767 10.1269 85.2796 10.1269C89.8214 10.1269 92.3912 13.5231 92.3912 18.4631V20.0068H81.5744ZM100.578 13.2144C97.5307 13.2144 97.0526 15.8696 97.0526 18.9571C97.0526 22.0446 97.5307 24.7615 100.578 24.7615C103.626 24.7615 104.045 22.0446 104.045 18.9571C104.045 15.8696 103.686 13.2144 100.578 13.2144ZM104.164 27.6638V25.8113C103.088 27.2315 101.415 27.9725 99.7418 27.849C98.2478 27.9108 96.7538 27.355 95.6183 26.3053C93.945 24.5763 93.7059 21.5506 93.7059 18.9571C93.7059 16.3636 93.8852 13.3996 95.6183 11.6089C96.7538 10.5592 98.188 10.0034 99.6821 10.0652C101.475 10.0652 102.849 10.4974 104.104 12.0412V3.27272H107.511V27.7255H104.164V27.6638ZM115.997 27.6638V3.27272H131.117V6.6072H119.583V13.7084H129.443V16.9811H119.583V24.3293H131.117V27.6638H115.997ZM137.69 27.6638C134.463 27.6638 133.089 25.4408 133.089 22.8473V3.27272H136.495V22.6621C136.495 24.0206 136.973 24.6998 138.348 24.6998H139.842V27.6638H137.69ZM147.431 27.9108C144.682 27.9108 142.352 27.4168 140.38 25.4408L142.591 23.1561C143.906 24.3911 145.639 25.0703 147.431 24.9468C149.463 24.9468 151.137 24.2058 151.137 22.5386C151.137 21.3653 150.479 20.6243 148.866 20.5008L146.176 20.2538C143.009 19.9451 141.216 18.5249 141.216 15.4374C141.216 12.0412 144.025 10.1269 147.551 10.1269C150.061 10.1269 152.212 10.6827 153.766 12.1029L151.615 14.3259C150.42 13.3996 148.925 12.9674 147.431 13.0291C145.4 13.0291 144.384 13.9554 144.384 15.2521C144.384 16.3019 144.921 17.1046 146.714 17.2281L149.344 17.4751C152.511 17.7839 154.364 19.3276 154.364 22.4151C154.364 26.0583 151.376 27.9108 147.372 27.9108H147.431ZM165.659 15.1904C165.389 14.5096 164.924 13.9311 164.325 13.5334C163.726 13.1356 163.023 12.938 162.312 12.9674C160.878 12.9056 159.503 13.7701 158.965 15.1904C158.667 15.9314 158.487 16.7341 158.547 17.5369H166.137C166.137 16.7341 166.017 15.9314 165.659 15.1904ZM158.547 20.0068C158.547 22.9708 160.101 24.885 162.85 24.885C164.404 24.9468 165.898 24.3293 166.914 23.0943L169.125 25.1938C167.511 27.0463 165.181 28.0343 162.85 27.9108C158.607 27.9108 155.26 25.626 155.26 19.0188C155.26 13.3996 158.069 10.1269 162.432 10.1269C166.914 10.1269 169.543 13.5231 169.543 18.4631V20.0068H158.547ZM178.029 27.6638H175.221L169.065 10.3122H172.651L176.655 22.5386L180.599 10.3122H184.185L178.029 27.6638ZM188.607 27.6638H185.201V10.3122H188.607V27.6638ZM185.081 6.85419V3.14922H188.667V6.85419H185.081ZM200.5 15.1904C199.962 13.8319 198.647 12.9056 197.213 12.9674C195.778 12.9056 194.404 13.7701 193.866 15.1904C193.567 15.9314 193.388 16.7341 193.448 17.5369H201.037C200.978 16.7341 200.858 15.9314 200.5 15.1904ZM193.388 20.0068C193.388 22.9708 194.882 24.885 197.691 24.885C199.245 24.9468 200.739 24.3293 201.755 23.0943L203.906 25.1938C202.292 27.0463 199.962 28.0343 197.571 27.9108C193.328 27.9108 189.982 25.626 189.982 19.0188C189.982 13.3996 192.79 10.1269 197.093 10.1269C201.575 10.1269 204.205 13.5231 204.205 18.4631V20.0068H193.388ZM215.56 14.3876C214.962 13.6466 214.006 13.2144 213.05 13.2144C211.197 13.2144 209.703 14.7581 209.703 17.1046V27.6638H206.296V10.3122H209.583V12.2264C210.659 10.8679 212.332 10.0652 214.065 10.1269C215.56 10.0652 217.054 10.6827 218.069 11.7942L215.56 14.3876ZM13.267 14.9434C20.2591 14.9434 28.6855 13.2761 28.6855 6.54545C28.6855 1.79074 23.8448 0 19.3627 0C12.5499 0 0 3.76672 0 17.2281C0 23.9588 5.13948 27.849 13.267 27.849C21.8727 27.849 28.1476 22.2298 30.06 14.6964C24.9803 23.4031 18.5858 26.12 13.3268 26.12C6.8128 26.12 4.30282 21.3036 4.30282 17.1046C4.36258 5.37221 13.5658 1.35849 19.3627 1.35849C23.307 1.35849 25.5779 3.89022 25.5779 6.66895C25.5779 14.2641 14.5818 14.0789 9.56183 14.0789H7.17137L6.09567 15.1904C9.20326 15.5609 12.1913 16.4871 15.0001 17.9074C22.1715 21.5506 28.9245 31.06 37.829 31.06C41.0561 31.06 41.8928 30.072 42.4904 29.2075C38.1278 31.9862 30.7771 27.1698 26.8329 23.4031C23.6655 20.2538 20.797 16.7959 13.267 14.9434Z" fill="#9C9C9C"/>
</svg>

<svg xmlns="http://www.w3.org/2000/svg" width="219" height="32" fill="none" xmlns:v="https://vecta.io/nano"><path d="M53.726 6.607h-5.319v7.595h5.319c2.391 0 4.004-1.42 4.004-3.828s-1.614-3.767-4.004-3.767zm4.183 21.057l-5.02-10.312h-4.482v10.312h-3.586V3.273h9.143c4.482 0 7.351 2.964 7.351 7.163.12 3.026-1.853 5.743-4.721 6.484l5.438 10.806h-4.124v-.062zM73.268 15.19c-.837-1.914-3.048-2.717-4.9-1.853-.777.37-1.434 1.05-1.793 1.853-.299.741-.478 1.544-.418 2.346h7.59c0-.803-.12-1.605-.478-2.346zm-7.112 4.816c0 2.964 1.554 4.878 4.303 4.878 1.554.062 3.048-.556 4.064-1.791l2.151 2.099c-1.614 1.852-3.885 2.841-6.275 2.717-4.243 0-7.59-2.285-7.59-8.892 0-5.619 2.809-8.892 7.112-8.892 4.542 0 7.171 3.396 7.171 8.336v1.544H66.156zm22.53-4.816c-.27-.681-.735-1.259-1.334-1.657a3.38 3.38 0 0 0-2.013-.566c-1.434-.062-2.809.803-3.347 2.223-.299.741-.478 1.544-.418 2.346h7.59c0-.803-.179-1.605-.478-2.346zm-7.112 4.816c0 2.964 1.554 4.878 4.303 4.878 1.554.123 3.048-.556 4.064-1.791l2.151 2.099c-1.614 1.852-3.944 2.841-6.335 2.717-4.243 0-7.59-2.285-7.59-8.892 0-5.619 2.809-8.892 7.112-8.892 4.542 0 7.112 3.396 7.112 8.336v1.544H81.574zm19.004-6.792c-3.047 0-3.525 2.655-3.525 5.743s.478 5.804 3.525 5.804 3.467-2.717 3.467-5.804-.359-5.743-3.467-5.743zm3.586 14.449v-1.852c-1.076 1.42-2.749 2.161-4.422 2.038-1.494.062-2.988-.494-4.123-1.544-1.673-1.729-1.912-4.755-1.912-7.348s.179-5.558 1.912-7.348c1.135-1.05 2.57-1.606 4.064-1.544 1.793 0 3.167.432 4.422 1.976V3.273h3.407v24.453h-3.347v-.062zm11.833 0V3.273h15.12v3.334h-11.534v7.101h9.86v3.273h-9.86v7.348h11.534v3.334h-15.12zm21.693 0c-3.227 0-4.601-2.223-4.601-4.816V3.273h3.406v19.389c0 1.359.478 2.038 1.853 2.038h1.494v2.964h-2.152zm9.741.247c-2.749 0-5.079-.494-7.051-2.47l2.211-2.285c1.315 1.235 3.048 1.914 4.84 1.791 2.032 0 3.706-.741 3.706-2.408 0-1.173-.658-1.914-2.271-2.038l-2.69-.247c-3.167-.309-4.96-1.729-4.96-4.816 0-3.396 2.809-5.311 6.335-5.311 2.51 0 4.661.556 6.215 1.976l-2.151 2.223c-1.195-.926-2.69-1.359-4.184-1.297-2.031 0-3.047.926-3.047 2.223 0 1.05.537 1.853 2.33 1.976l2.63.247c3.167.309 5.02 1.852 5.02 4.94 0 3.643-2.988 5.496-6.992 5.496h.059zm18.228-12.72a3.56 3.56 0 0 0-1.334-1.657c-.599-.398-1.302-.595-2.013-.566-1.434-.062-2.809.803-3.347 2.223-.298.741-.478 1.544-.418 2.346h7.59c0-.803-.12-1.605-.478-2.346zm-7.112 4.816c0 2.964 1.554 4.878 4.303 4.878 1.554.062 3.048-.556 4.064-1.791l2.211 2.099c-1.614 1.852-3.944 2.841-6.275 2.717-4.243 0-7.59-2.285-7.59-8.892 0-5.619 2.809-8.892 7.172-8.892 4.482 0 7.111 3.396 7.111 8.336v1.544h-10.996zm19.482 7.657h-2.808l-6.156-17.352h3.586l4.004 12.226 3.944-12.226h3.586l-6.156 17.352zm10.578 0h-3.406V10.312h3.406v17.352zm-3.526-20.81V3.149h3.586v3.705h-3.586zM200.5 15.19c-.538-1.359-1.853-2.285-3.287-2.223-1.435-.062-2.809.803-3.347 2.223-.299.741-.478 1.544-.418 2.346h7.589c-.059-.803-.179-1.605-.537-2.346zm-7.112 4.816c0 2.964 1.494 4.878 4.303 4.878 1.554.062 3.048-.556 4.064-1.791l2.151 2.099c-1.614 1.852-3.944 2.841-6.335 2.717-4.243 0-7.589-2.285-7.589-8.892 0-5.619 2.808-8.892 7.111-8.892 4.482 0 7.112 3.396 7.112 8.336v1.544h-10.817zm22.172-5.619c-.598-.741-1.554-1.173-2.51-1.173-1.853 0-3.347 1.544-3.347 3.89v10.559h-3.407V10.312h3.287v1.914c1.076-1.358 2.749-2.161 4.482-2.1 1.495-.062 2.989.556 4.004 1.667l-2.509 2.593zm-202.293.556c6.992 0 15.419-1.667 15.419-8.398C28.686 1.791 23.845 0 19.363 0 12.55 0 0 3.767 0 17.228c0 6.731 5.139 10.621 13.267 10.621 8.606 0 14.881-5.619 16.793-13.153-5.08 8.707-11.474 11.424-16.733 11.424-6.514 0-9.024-4.816-9.024-9.015.06-11.732 9.263-15.746 15.06-15.746 3.944 0 6.215 2.532 6.215 5.31 0 7.595-10.996 7.41-16.016 7.41h-2.39L6.096 15.19c3.108.37 6.096 1.297 8.904 2.717 7.171 3.643 13.924 13.153 22.829 13.153 3.227 0 4.064-.988 4.661-1.852-4.363 2.779-11.713-2.038-15.658-5.804-3.167-3.149-6.036-6.607-13.566-8.46z" fill="#9c9c9c"/></svg>
